X:1
T:Wine in a morning
T:Wine in a morning
T:Henry Purcell
C:Henry Purcell
%%score [ 1 2 3 ]
L:1/8
Q:1/4=80
M:3/4
K:A
V:1 treble-8 nm="I"
V:2 treble-8 nm="II"
V:3 treble-8 nm="III"
V:1
|: A2 | G3 F E2 | A2 A2 F E | DC DB, E2 | C3 B, A,2 | A2 A2 F2 | B3 B E2 | e3 e B2 | G4 A/ E3/2 | %9
w: Wine,|wine in a|morn- ing makes us|frol- * lick _ and|gay, that like|ea- gles we|soar in the|pride of the|day; Gout- y|
 G3 c d2 | B3 e c2 | d2 c>B A2 | A4 :| %13
w: sots in the|night on- ly|find a _ de-|cay.|
V:2
|: c3/2 d/ | B2 B2 e2 | c3 B c2 | d2 F2 E2 | A4 AG | F>GF3/2 E/ DC | B,3 B, BG | E3 e ^d2 | e4 e2 | %9
w: 'Tis the|sun ripes the|grape and to|drink- ing gives|light: We _|im- * * i- tate _|him when by _|noon we're at|height; They|
 e A3 F2 | G3 E A2 | B2 G3 A | A4 :| %13
w: steal wine who|take it when|he's out of|sight.|
V:3
|: A,2 | E2 E2 C2 | F2 F2 AF | B2 Bc BG | c4 c2 | d2 d2 d2 | ^d3 c B2 | G3 A B2 | E4 C2 | D3 E FE | %10
w: Boy,|fill all the|glass- es, fill 'em|up now _ he _|shines, The|high- er he|ri- ses, the|more he re-|fines; But|wine and with _|
 E3 G A2 | E3 D E2 | A,4 :| %13
w: palls as their|ma- ker de-|clines.|

